X: 124001
T: CORN RIGGS
Q: "Reel."
R: Reel.
%R: reel
B: James Kerr "Merry Melodies" v.1 p.24 s.0 #1
Z: 2017 John Chambers <jc:trillian.mit.edu>
M: C
L: 1/8
K: D
uA2 |\
d2de f2ed | cBcd e2A2 |\
d2de (fg)fe | d2a2 a2A2 |\
d2de (gf)ed | cBcd e2A2 |\
BcdB edcB | A2d2d2 :|
|: A2 |\
d2a2 f2a2 | cBcd e2A2 |\
d2a2 fgef | d2a2 a2A2 |\
d2a2 bagf | gfed cdeA |\
BcdB edcB | A2d2d2 :|

%%sep 1 1 500
%%sep 1 1 500

